icons/scalable/qui-domains-scalable.svg

<svg width="48" height="48" viewBox="0 0 48 48" fill="none" xmlns="http://www.w3.org/2000/svg">
<mask id="mask0_1_3771" style="mask-type:alpha" maskUnits="userSpaceOnUse" x="3" y="0" width="43" height="48">
<path d="M45.0002 33.6788V14.3215C45.0002 12.8861 44.2311 11.5607 42.9847 10.8486L25.9846 1.13426C24.7548 0.431567 23.2452 0.43157 22.0155 1.13427L5.01544 10.8486C3.76914 11.5607 3 12.8861 3 14.3215V33.6788C3 35.1142 3.76916 36.4396 5.01547 37.1518L22.0157 46.866C23.2454 47.5687 24.755 47.5687 25.9847 46.866L42.9848 37.1518C44.2311 36.4396 45.0002 35.1142 45.0002 33.6788Z" fill="#DC2626"/>
</mask>
<g mask="url(#mask0_1_3771)">
<path d="M45.0002 33.6788V14.3215C45.0002 12.8861 44.2311 11.5607 42.9847 10.8486L25.9846 1.13426C24.7548 0.431567 23.2452 0.43157 22.0155 1.13427L5.01544 10.8486C3.76914 11.5607 3 12.8861 3 14.3215V33.6788C3 35.1142 3.76916 36.4396 5.01547 37.1518L22.0157 46.866C23.2454 47.5687 24.755 47.5687 25.9847 46.866L42.9848 37.1518C44.2311 36.4396 45.0002 35.1142 45.0002 33.6788Z" fill="#A3A3A3"/>
<path d="M3 33.6788C3 35.1142 3.76915 36.4396 5.01546 37.1518L22.055 46.8886C22.9217 47.3838 24 46.758 24 45.7599V26.3215C24 24.886 23.2308 23.5606 21.9845 22.8485L4.94498 13.1117C4.07832 12.6164 3 13.2422 3 14.2404V33.6788Z" fill="#525252"/>
</g>
</svg>

<svg xmlns="http://www.w3.org/2000/svg" width="48" height="48" fill="none" viewBox="0 0 48 48">
    <mask id="mask0_1_3771" width="43" height="48" x="3" y="0" maskUnits="userSpaceOnUse" style="mask-type:alpha">
        <path fill="#DC2626" d="M45 33.679V14.322a4 4 0 0 0-2.015-3.473l-17-9.715a4 4 0 0 0-3.97 0l-17 9.715A4 4 0 0 0 3 14.322v19.357a4 4 0 0 0 2.015 3.473l17 9.714a4 4 0 0 0 3.97 0l17-9.714A4 4 0 0 0 45 33.679"/>
    </mask>
    <g mask="url(#mask0_1_3771)">
        <path fill="#A3A3A3" d="M45 33.679V14.322a4 4 0 0 0-2.015-3.473l-17-9.715a4 4 0 0 0-3.97 0l-17 9.715A4 4 0 0 0 3 14.322v19.357a4 4 0 0 0 2.015 3.473l17 9.714a4 4 0 0 0 3.97 0l17-9.714A4 4 0 0 0 45 33.679"/>
        <path fill="#525252" d="M3 33.679a4 4 0 0 0 2.015 3.473l17.04 9.737A1.3 1.3 0 0 0 24 45.759V26.323a4 4 0 0 0-2.015-3.473l-17.04-9.737A1.3 1.3 0 0 0 3 14.24z"/>
    </g>
</svg>
